X:1
T:When We Two Parted
T:When We Two Parted
T:Copyright © CPDL
T:Copyright © CPDL
T:Copyright © CPDL
T:Copyright © CPDL
T:Copyright © CPDL
T:Copyright © CPDL
Z:Copyright © CPDL
%%score ( 1 2 ) { ( 3 4 5 ) ( 6 7 ) }
L:1/8
Q:1/4=70
M:4/4
K:Eb
V:1 treble nm="P1"
V:2 treble 
V:3 treble nm="P2"
V:4 treble 
V:5 treble 
V:6 bass nm="P3"
V:7 bass 
V:1
"^Editor: John Henry Fowler""^(  Revision:   6 - 6 - 2008  )""^Lento espressivo." z z2 | %1
w: |
"^Words by George Gordon Noel Byron - (1788-1824)""^From \"English Lyrics\" -  Set 4 -  Number 3""^Dedicated \"To Gwen\"" z8 | %2
w: |
"^Charles Hubert Hastings Parry""^( 1848 - 1918 )" z8 | z8 | z8 | z!p! B!<(!cB!<)!!>(! e2!>)! dG | %6
w: |||When we two part- ed in|
 G2 AG B4 |!<(! A2 G!<)!F c2 GB | A G2 F !>!c4 |!mf! !>!f2 dc!>(! c>G G2 | c2 DE!>)! A4 | %11
w: si- lence and tears,|Half bro- ken heart- ed, to|se- ver for years,|Pale grew thy cheek and cold,|Cold- er thy kiss;|
!<(! G2 G!<)!B!>(! B>D!>)! D2 |!p! G4- G F2 E | G4 z4 | z8 | z4 z2 z!p! B | %16
w: True- ly that hour for- told|Sor~\-- * \-~row to|this~!||The|
 B2!<(! c>B!<)!!>(! e2!>)! dG | G2 AG B3 B | A2 GF c2 GB | AG F2!<(! c3!<)! c | %20
w: dew of the morn- ing Sulk|chill on my brow; It|felt like the warn- ing Of|what I feel now. Thy|
 !>!f2!>(! dc !>!c2!>)! GG | c2 DE A3 A |!<(! G>G!<)! B2!>(! B2 D!>)!!p![B,B] | d4- d>d =A2 || %24
w: vows are all bro- ken, And|light is thy fame: I|hear thy name spo- ken And|share _ in its|
[K:Bb] G4 z2 z!mf! G | B2 AG d2"^cresc." BG | !>!g2 fe d3 G | d c2 B!<(! d2!<)!!f! B2 | %28
w: shame. They|name thee be- fore me, A|knell in my ear; A|shud- der comes o'er me~\-\-\-|
"^allargando" f4- fd d>c |"^a tempo" d4 z2 z c | F2 Bd A2 c_G | F2 Bd A4 | %32
w: Why _ wert thou so|dear~? They|know not I knew thee Who|knew thee too well:|
"^rit." B4!<(! (cd)e!<)!f | g4!>(! G2!>)! A2 |!<(! (Bc!<)! d2-) d!>(! ^F2 B!>)! | G4 z4 | %36
w: Long, long _ shall I|rue thee Too|deep~\-- * * * \-~ly to|tell.|
 z4 z2 B2 ||[K:Eb]!p! B2 cB e3 d | G2 AG c2 BG |!<(! A2 G!<)!F!>(! c3!>)! G | %40
w: In|se- cret we met: In|si- lence I grieve That thy|heart could for- get, Thy|
!<(! A!<)!!>(! d2!>)! c F4 | z!p!"^slower" f d>c c2 G2 | c2 DE A4 |!<(! G2 G!<)!B!>(! B2!>)! D2 | %44
w: spi- rit de- ceive.|If I should meet thee|Af- ter long years,|How should I greet thee~?|
 z4 z2 z!pp! D | G4- GF z E | G8 | z8 |] %48
w: With|si~\-- * \-~lence and|tears.||
V:2
 x3 | x8 | x8 | x8 | x8 | x8 | x8 | x8 | x8 | x8 | x8 | x8 | x8 | x8 | x8 | x8 | x8 | x8 | x8 | %19
 x8 | x8 | x8 | x8 | D4- D>D ^F2 ||[K:Bb] x8 | x8 | x8 | x8 | x8 | x8 | x8 | x8 | x8 | x8 | x8 | %35
 x8 | x8 ||[K:Eb] x8 | x8 | x8 | x8 | x8 | x8 | x8 | x8 | x8 | x8 | x8 |] %48
V:3
 ([B,B] [A,EA]>[G,G]) | ([G,_CG] [=E,=E]2 [F,F])"^più"!f! z !>![_E_e] ([DGd]>[=Cc]) | %2
 [Cc] [=A,=A]2 [=B,=B] z!f! (!>![Gg] [Ff][Ee]) | (!>![D_Ad][=B,=B][Cc][Ee])!p! F3 F | %4
 (c2 B3) (=E FA) | G G2 G z (GAG) | z (GAG) z ([GB]2 [GB]) | z ([CA] [B,G][A,F]) z (FD=E) | %8
 z C D_E G=EFG | ([DA]4 [EG]4) | [DFc]2 z [B,E] [A,A]4 | [G,G]4 [G,DG]2 z2 | %12
 z (B,!<(! C>E)!<)!!>(! (E2!>)! D2) | z (!>![EGe] d>c) (!>![CFc] [=A,=A]2 [=B,=B]) | %14
!f! z!>(! (!>![Gg] [Fcf][Ee])!>)! ([DAd][Cc] A>F) | (c2 B3) (=E FA) | %16
 z [_EG]2 [_EG] z ([EG=A] [DG=B][FGd]) | z [G,CE]2 [G,CE] z ([G,_D] [=EG][DGB]) | %18
 z ([CA] [B,=E][A,F]) z ([B,F]=D[G,B,E]) | z (CD_E) (G=EFG) | ([A,DA]4 [G,EG]4) | %21
 [DFc]2 A[B,E] [A,A]4 | (G4 [G,DG]2) z2 | z (D[CE][B,G]) [Gc]2 ^F2 || %24
[K:Bb] z (!>![GBg] [Ff]>[Ee]) ([DGd][Ee][Cc]G) | [B,GB]3 [G,E][K:bass] [D,B,D]3 G, | %26
 (([^C,G,^C]4 [D,B,D]2)) z2 | !>![D,B,D]4 !>![D,B,D]4 | (!>![FBf][Dd][B,B]) ([F,FG]2 [A,EA]2) z | %29
!mf! z (D F[DFd]) (!>![CA]3 c) | z (D F[DFd]) !>![CA]4 | z (DBd) ([A,^F]3 A) | %32
 z (B,DB) z (_A,D_A) | [B,_DG]4!>(! z2!>)! [G,^CG]2 | ([DGB]2 [=CG][B,F]) !>![D^FB]2 [CD]2 | %35
 z (B,DB) ([A,^F]3 A) | z (B,DB) ([_Ad]>cBA) ||[K:Eb] z B cB z g- [ege'][dgd'] | %38
 z ([Geg] [Aa][Geg]) z ([Geg] [Aa][Geg]) | z ([Acg] [Aa][Ff]) ([Fcf] [Dd]2 [=G=g]) | %40
 [FAf] A2 C ([B,F]G)!>(! (GA)!>)! | c4 c4 | c2 [CD][B,E] (E2 D2) | (D2 ^C2) [G,DG]2 z2 | z8 | %45
 z (B, C>E) (E2 D2) | z E ([E,G,_D]>_C) (!>!B,2 B,A,) | [B,,G,B,]6 z2 |] %48
V:4
 x3 | x8 | F2 z2 x2 c2 | x4 z [CE]_B,[A,E] | z2 (^C2 D4) | _E E2 E x F2 F | x E2 E x (_D_ED) | %7
 x4 x [G,B,]2 [G,B,] | x A,2 [A,C] x [A,C]2 _E | x8 | z4 (E2 D2) | (D2 ^C2) x4 | x2 =A,2 [_A,B,]4 | %13
 x8 | x8 | z2 ^C2 D4 | x8 | x8 | x4 x G,2 x | x A,2 A, x [A,C]2 _E | x8 | z4 (E2 D2) | %22
 (D2 ^C2) z4 | x4 C4 ||[K:Bb] x8 | x4[K:bass] x4 | x8 | x8 | x8 | x4 EF _G2 | x4 (EF _G2) | %31
 x4 (CD E2) | x8 | x8 | x8 | x4 CD E2 | x4 D4 ||[K:Eb] x8 | x8 | x8 | x F2 x x x E2 | D4 E4 | %42
 D2 x2 [A,c]4 | [G,G]4 x4 | x8 | x2 x2 [_A,B,]4 | x4 _C,4 | x8 |] %48
V:5
 x3 | x8 | x8 | x8 | x8 | x8 | x8 | x8 | x8 | x8 | x8 | x8 | x8 | x8 | x8 | x8 | x8 | x8 | x8 | %19
 x8 | x8 | x8 | G,4 x4 | x8 ||[K:Bb] x8 | x4[K:bass] x4 | x8 | x8 | x8 | x8 | x8 | x8 | x8 | x8 | %34
 x8 | x8 | x8 ||[K:Eb] x8 | x8 | x8 | x8 | x8 | x8 | x8 | x8 | x8 | x4 E,3 E, | x8 |] %48
V:6
!mf! z!<)!!<(! [E,,B,,]2 |!>(! !>![A,,_C,]2 A,,,2!>)! z2!<(! [E,,B,,]2!<)! | %2
!>(! (!>![G,,,G,,]2!>)! D,2 G,2) [C,,C,]2 | [F,,C,A,]2!>(! z2!>)! z F,2 F, | z2 (=E,2 F,2) (C>B,) | %5
!p! B,2 z2 !>!=B,4- | C2 z2 =E,4- | F,2 z2 C,4 | (F,2 E,2 D,2 C,2) | F,4 G,4 | F,2 z E, (E,2 D,2) | %11
 (F,2!<(! ^E,2)!<)! [D,,B,,D,]2 z2 |!p! z4 B,,4 | %13
!f! [E,,B,,G,]2!<(! z2!<)!!>(! [G,,,G,,]2 G,>!>)!F, |!f! (F,E,) z2 (A,2 F,>)A, | %15
 z2!p! E,2 (F,2 C>B,) |!p! E,2 z2 (G,,4 | C,2) z2 (=E,,4 | F,,2) z2 C,,4 | %19
 (F,,2!<(! E,,2 D,,2!<)! C,,2) |!>(! !>!B,,,8!>)! | [A,,F,]2 z [G,,E,] (E,2 D,2) | (D,2 ^C,2) x4 | %23
 z4 [D,=A,]4 ||[K:Bb]!mf!"^cresc." G,,2!<(! [B,,D,]2!<)!!>(! !>![C,,G,,E,]3!>)! E,, | %25
 z ([G,,,G,,][A,,,A,,]!<(![B,,,B,,]) z ([G,,,G,,][A,,,A,,]!<)![B,,,B,,]) | %26
 z!>(! ([G,,,G,,][B,,,B,,][E,,E,])!>)! z ([G,,,G,,][A,,,A,,][B,,,B,,]) | %27
 z"^cresc."!<(! ([G,,,G,,][A,,,A,,][B,,,B,,]) z ([_G,,,_G,,][B,,,B,,]!<)![D,,D,]) | %28
 F,,2"^colla voce" D,2 (E,2 F,2) |!mf!"^a tempo" x3 F, (_G,F, E,2) | x3 F, (_G,F, E,2) | %31
!mf!"^a tempo" x3 D, (E,D, C,2) |"^rit." [G,,B,,]4!<)!!<(! [F,,B,,]4 | %33
 [=E,,B,,]4!>(! z2!>)! _E,,2 |!p! D,,4 z2 D,2 | [G,,,G,,]4 G,,4 |"^rit." (G,,4 F,,2 B,,2) || %37
[K:Eb]!pp! E4 B,4 | C4 =E,4 | F,4 C,4 | A,2 x2 F,2"^dim."!>(! F,2!>)! |!pp!"^slower" [F,A,]4 G,4 | %42
 F,3 F, (E,2 D,2) | (D,2 ^C,2) [B,,D,]2 z2 | z8 |!p!!<(! z4!<)!!>)!!>(! B,,4 | %46
 E,,2!<(! z2!<)!!>)!!>(! A,,,4 | E,,,6 z2 |] %48
V:7
 x3 | x8 | x8 | x4 x (A,,G,,F,,) | x2 B,,6 | _E,2 x2 x4 | x8 | x8 | x8 | B,,8 | A,,2 x G,, F,,4 | %11
 [E,,B,,]4 x4 | x8 | x8 | C,2 x2 [F,,C,]4 | x2 B,,6 | x8 | x8 | x8 | x8 | x8 | z4 F,,4 | %22
 ([E,,B,,]4 [E,,B,,D,]2) z2 | x8 ||[K:Bb] x8 | x8 | x8 | x8 | F,,,2 z2 F,,4 | [B,,,B,,]3 z B,,4 | %30
 ([B,,,B,,]3 z) B,,4 | [B,,,B,,]3 z D,,4 | x8 | x8 | x8 | x8 | x8 ||[K:Eb] x4 z E2 E | %38
 z E2 E z (G, CB,) | z (A, B,A,) (G,2 CB,) | F,2 E,2 D,2 C,2 | B,,4 B,,4 | A,,3 A,, G,,4 | %43
 [E,,B,,]4 D,,2 x2 | x8 | x8 | x8 | x8 |] %48

